client/public/img/game/shared/projectiles/proj_confetti_nopin.svg

<?xml version="1.0" encoding="UTF-8" standalone="no"?>
<svg
   width="57"
   height="80"
   viewBox="0 0 57 80"
   fill="none"
   version="1.1"
   id="svg46"
   xmlns="http://www.w3.org/2000/svg"
   xmlns:svg="http://www.w3.org/2000/svg">
  <defs
     id="defs46" />
  <rect
     x="24.8613"
     y="39.4395"
     width="7.5"
     height="7.5"
     fill="#7D2DD2"
     id="rect1" />
  <rect
     x="24.8613"
     y="31.9395"
     width="7.5"
     height="7.5"
     fill="#42BD7D"
     id="rect2" />
  <rect
     x="32.3613"
     y="39.4395"
     width="7.5"
     height="7.5"
     fill="#42BD7D"
     id="rect3" />
  <rect
     x="32.3613"
     y="31.9395"
     width="7.5"
     height="7.5"
     fill="#D2B12D"
     id="rect4" />
  <rect
     x="39.8613"
     y="39.4395"
     width="7.5"
     height="7.5"
     fill="#D2B12D"
     id="rect5" />
  <rect
     x="32.3613"
     y="24.4395"
     width="7.5"
     height="7.5"
     fill="#D22D2D"
     id="rect6" />
  <rect
     x="39.8613"
     y="31.9395"
     width="7.5"
     height="7.5"
     fill="#D22D2D"
     id="rect7" />
  <rect
     x="32.3613"
     y="46.9395"
     width="7.5"
     height="7.5"
     fill="#7D2DD2"
     id="rect8" />
  <rect
     x="39.8613"
     y="54.4395"
     width="7.5"
     height="7.5"
     fill="#7D2DD2"
     id="rect9" />
  <rect
     x="39.8613"
     y="46.9395"
     width="7.5"
     height="7.5"
     fill="#42BD7D"
     id="rect10" />
  <rect
     x="24.8613"
     y="46.9395"
     width="7.5"
     height="7.5"
     fill="#42BD7D"
     id="rect11" />
  <rect
     x="32.3613"
     y="54.4395"
     width="7.5"
     height="7.5"
     fill="#42BD7D"
     id="rect12" />
  <rect
     x="39.8613"
     y="61.9395"
     width="7.5"
     height="7.5"
     fill="#42BD7D"
     id="rect13" />
  <rect
     x="24.8613"
     y="69.4395"
     width="7.5"
     height="7.5"
     fill="#D2B12D"
     id="rect14" />
  <rect
     x="24.8613"
     y="54.4395"
     width="7.5"
     height="7.5"
     fill="#D2B12D"
     id="rect15" />
  <rect
     x="32.3613"
     y="61.9395"
     width="7.5"
     height="7.5"
     fill="#D2B12D"
     id="rect16" />
  <rect
     x="39.8613"
     y="69.4395"
     width="7.5"
     height="7.5"
     fill="#D2B12D"
     id="rect17" />
  <rect
     x="24.8613"
     y="61.9395"
     width="7.5"
     height="7.5"
     fill="#D22D2D"
     id="rect18" />
  <rect
     x="32.3613"
     y="69.4395"
     width="7.5"
     height="7.5"
     fill="#D22D2D"
     id="rect19" />
  <path
     d="M24.3725 76.9395C21.2402 75.5852 18.8621 72.8168 18.043 69.4395H24.8614V76.9395H24.3725Z"
     fill="#42BD7D"
     id="path19" />
  <path
     d="M18.0429 69.4395C17.8406 68.6054 17.7334 67.7341 17.7334 66.8379V61.9395H24.8613V69.4395H18.0429Z"
     fill="#D2B12D"
     id="path20" />
  <path
     d="M17.7334 61.9395V54.4395H24.8613V61.9395H17.7334Z"
     fill="#D22D2D"
     id="path21" />
  <path
     d="M17.7334 54.4395V46.9395H24.8613V54.4395H17.7334Z"
     fill="#D2B12D"
     id="path22" />
  <path
     d="M17.7334 46.9395V39.4395H24.8613V46.9395H17.7334Z"
     fill="#42BD7D"
     id="path23" />
  <path
     d="M17.7334 39.4395V36.3906C17.7334 34.8065 18.0684 33.3004 18.6714 31.9395H24.8613V39.4395H17.7334Z"
     fill="#7D2DD2"
     id="path24" />
  <path
     d="M18.6709 31.9397C19.8613 29.2529 22.0964 27.1318 24.8609 26.0918V31.9397H18.6709Z"
     fill="#42BD7D"
     id="path25" />
  <path
     d="M24.8613 26.0916C26.0657 25.6385 27.3706 25.3906 28.7334 25.3906H30.7012V24.4395H32.3613V31.9395H24.8613V26.0916Z"
     fill="#D2B12D"
     id="path26" />
  <path
     d="M32.3613 18.4648V24.4395H30.7012V18.9648C30.7012 18.6895 30.9248 18.4648 31.2012 18.4648H32.3613Z"
     fill="#D22D2D"
     id="path27" />
  <path
     d="M39.8613 18.4648V24.4395H32.3613V18.4648H39.8613Z"
     fill="#D2B12D"
     id="path28" />
  <path
     d="M41.5137 24.4395H39.8613V18.4648H41.0137C41.29 18.4648 41.5137 18.6895 41.5137 18.9648V24.4395Z"
     fill="#42BD7D"
     id="path29" />
  <path
     d="M41.5137 24.4395V25.3906H43.4883C44.8514 25.3906 46.1567 25.6386 47.3613 26.0919V31.9395H39.8613V24.4395H41.5137Z"
     fill="#D2B12D"
     id="path30" />
  <path
     d="M47.3613 26.0918C50.1253 27.1319 52.36 29.2529 53.5503 31.9393H47.3613V26.0918Z"
     fill="#42BD7D"
     id="path31" />
  <path
     d="M53.5503 31.9395C54.1533 33.3004 54.4883 34.8065 54.4883 36.3906V39.4395H47.3613V31.9395H53.5503Z"
     fill="#D2B12D"
     id="path32" />
  <path
     d="M54.4883 39.4395V46.9395H47.3613V39.4395H54.4883Z"
     fill="#D22D2D"
     id="path33" />
  <path
     d="M54.4883 46.9395V54.4395H47.3613V46.9395H54.4883Z"
     fill="#D2B12D"
     id="path34" />
  <path
     d="M54.4883 54.4395V61.9395H47.3613V54.4395H54.4883Z"
     fill="#42BD7D"
     id="path35" />
  <path
     d="M54.4883 61.9395V66.8379C54.4883 67.7341 54.3811 68.6054 54.1788 69.4395H47.3613V61.9395H54.4883Z"
     fill="#7D2DD2"
     id="path36" />
  <path
     d="M54.1788 69.4395C53.3596 72.8168 50.9815 75.5852 47.8492 76.9395H47.3613V69.4395H54.1788Z"
     fill="#42BD7D"
     id="path37" />
  <path
     d="M47.8492 76.9395C47.6885 77.0089 47.5259 77.0747 47.3613 77.1366V76.9395H47.8492Z"
     fill="#D2B12D"
     id="path38" />
  <path
     d="M47.3613 77.1366C46.1567 77.5899 44.8514 77.8379 43.4883 77.8379H39.8613V76.9395H47.3613V77.1366Z"
     fill="#D22D2D"
     id="path39" />
  <path
     d="M39.8613 77.8379H32.3613V76.9395H39.8613V77.8379Z"
     fill="#D2B12D"
     id="path40" />
  <path
     d="M32.3613 77.8379H28.7334C27.3706 77.8379 26.0657 77.59 24.8613 77.137V76.9395H32.3613V77.8379Z"
     fill="#42BD7D"
     id="path41" />
  <path
     d="M24.8609 77.137C24.6961 77.0749 24.5331 77.0091 24.3721 76.9395H24.8609V77.137Z"
     fill="#7D2DD2"
     id="path42" />
  <path
     d="M30.7012 18.9648C30.7012 18.6895 30.9248 18.4648 31.2012 18.4648H41.0137C41.29 18.4648 41.5137 18.6895 41.5137 18.9648V25.3906H43.4883C49.5635 25.3906 54.4883 30.3164 54.4883 36.3906V66.8379C54.4883 72.9121 49.5635 77.8379 43.4883 77.8379H28.7334C22.6582 77.8379 17.7334 72.9121 17.7334 66.8379V36.3906C17.7334 30.3164 22.6582 25.3906 28.7334 25.3906H30.7012V18.9648Z"
     stroke="#191A14"
     stroke-width="4"
     id="path43" />
  <path
     d="M42.541 5.23384C42.541 5.62621 42.6183 6.01477 42.7686 6.37726C42.9189 6.73976 43.1391 7.06912 43.4168 7.34656C43.6944 7.624 44.024 7.84411 44.3868 7.99425C44.7495 8.1444 45.1384 8.2216 45.531 8.22159C45.9237 8.2216 46.3125 8.1444 46.6753 7.99425C47.038 7.84411 47.3676 7.624 47.6453 7.34656C47.9229 7.06912 48.1432 6.73976 48.2934 6.37726C48.4437 6.01477 48.521 5.62621 48.521 5.23384C48.521 4.84148 48.4437 4.45302 48.2934 4.09052C48.1432 3.72803 47.9229 3.39857 47.6453 3.12112C47.3676 2.84368 47.038 2.62368 46.6753 2.47353C46.3125 2.32339 45.9237 2.24609 45.531 2.24609C45.1384 2.24609 44.7495 2.32339 44.3868 2.47353C44.024 2.62368 43.6944 2.84368 43.4168 3.12112C43.1391 3.39857 42.9189 3.72803 42.7686 4.09052C42.6183 4.45302 42.541 4.84148 42.541 5.23384Z"
     fill="#453C47"
     stroke="#181519"
     stroke-width="4"
     stroke-miterlimit="3.99393"
     id="path44" />
  <path
     d="M24.3485 12.4277L9.37936 18.611L3.3252 41.6867L9.49169 43.943L15.5459 21.2615L22.2005 18.4647L24.3485 12.4277Z"
     fill="#48354E"
     stroke="#19131B"
     stroke-width="4"
     stroke-miterlimit="3.99393"
     id="path45" />
  <path
     d="M40.2501 4.10547L41.5145 5.23272H45.4825L40.2501 12.3651L41.5145 18.4638C41.5145 18.4638 30.414 18.4638 30.2625 18.4638H22.2012L27.3102 4.10547L40.2501 4.10547Z"
     fill="#48354E"
     stroke="#19131B"
     stroke-width="4"
     stroke-miterlimit="3.99393"
     stroke-linecap="square"
     id="path46" />
</svg>

<svg xmlns="http://www.w3.org/2000/svg" width="57" height="80" fill="none"><path fill="#7D2DD2" d="M24.861 39.44h7.5v7.5h-7.5z"/><path fill="#42BD7D" d="M24.861 31.939h7.5v7.5h-7.5zM32.361 39.44h7.5v7.5h-7.5z"/><path fill="#D2B12D" d="M32.361 31.939h7.5v7.5h-7.5zM39.861 39.44h7.5v7.5h-7.5z"/><path fill="#D22D2D" d="M32.361 24.439h7.5v7.5h-7.5zM39.861 31.939h7.5v7.5h-7.5z"/><path fill="#7D2DD2" d="M32.361 46.94h7.5v7.5h-7.5zM39.861 54.44h7.5v7.5h-7.5z"/><path fill="#42BD7D" d="M39.861 46.94h7.5v7.5h-7.5zM24.861 46.94h7.5v7.5h-7.5zM32.361 54.44h7.5v7.5h-7.5zM39.861 61.94h7.5v7.5h-7.5z"/><path fill="#D2B12D" d="M24.861 69.439h7.5v7.5h-7.5zM24.861 54.44h7.5v7.5h-7.5z"/><path fill="#D2B12D" d="M32.361 61.94h7.5v7.5h-7.5zM39.861 69.439h7.5v7.5h-7.5z"/><path fill="#D22D2D" d="M24.861 61.94h7.5v7.5h-7.5z"/><path fill="#D22D2D" d="M32.361 69.439h7.5v7.5h-7.5z"/><path fill="#42BD7D" d="M24.373 76.94a11.03 11.03 0 0 1-6.33-7.5h6.818v7.5z"/><path fill="#D2B12D" d="M18.043 69.44a11 11 0 0 1-.31-2.602V61.94h7.128v7.5z"/><path fill="#D22D2D" d="M17.733 61.94v-7.5h7.128v7.5z"/><path fill="#D2B12D" d="M17.733 54.44v-7.5h7.128v7.5z"/><path fill="#42BD7D" d="M17.733 46.94v-7.5h7.128v7.5z"/><path fill="#7D2DD2" d="M17.733 39.44v-3.05c0-1.584.335-3.09.938-4.45h6.19v7.5z"/><path fill="#42BD7D" d="M18.67 31.94a11.04 11.04 0 0 1 6.19-5.848v5.848z"/><path fill="#D2B12D" d="M24.861 26.092a11 11 0 0 1 3.872-.701h1.968v-.951h1.66v7.5h-7.5z"/><path fill="#D22D2D" d="M32.361 18.465v5.974h-1.66v-5.474a.5.5 0 0 1 .5-.5z"/><path fill="#D2B12D" d="M39.861 18.465v5.974h-7.5v-5.974z"/><path fill="#42BD7D" d="M41.514 24.44H39.86v-5.975h1.153a.5.5 0 0 1 .5.5z"/><path fill="#D2B12D" d="M41.514 24.44v.95h1.974c1.363 0 2.669.249 3.873.702v5.848h-7.5v-7.5z"/><path fill="#42BD7D" d="M47.361 26.092a11.04 11.04 0 0 1 6.19 5.847h-6.19z"/><path fill="#D2B12D" d="M53.55 31.94a11 11 0 0 1 .938 4.45v3.05h-7.127v-7.5z"/><path fill="#D22D2D" d="M54.488 39.44v7.5h-7.127v-7.5z"/><path fill="#D2B12D" d="M54.488 46.94v7.5h-7.127v-7.5z"/><path fill="#42BD7D" d="M54.488 54.44v7.5h-7.127v-7.5z"/><path fill="#7D2DD2" d="M54.488 61.94v4.898c0 .896-.107 1.767-.31 2.602h-6.817v-7.5z"/><path fill="#42BD7D" d="M54.179 69.44a11.03 11.03 0 0 1-6.33 7.5h-.488v-7.5z"/><path fill="#D2B12D" d="M47.85 76.94q-.242.104-.489.197v-.198z"/><path fill="#D22D2D" d="M47.361 77.137c-1.204.453-2.51.7-3.873.7h-3.627v-.898h7.5z"/><path fill="#D2B12D" d="M39.861 77.838h-7.5v-.898h7.5z"/><path fill="#42BD7D" d="M32.361 77.838h-3.628c-1.362 0-2.667-.248-3.872-.701v-.198h7.5z"/><path fill="#7D2DD2" d="M24.86 77.137a11 11 0 0 1-.488-.198h.489z"/><path stroke="#191A14" stroke-width="4" d="M30.701 18.965a.5.5 0 0 1 .5-.5h9.813a.5.5 0 0 1 .5.5v6.426h1.974c6.075 0 11 4.925 11 11v30.447c0 6.074-4.925 11-11 11H28.733c-6.075 0-11-4.926-11-11V36.39c0-6.075 4.925-11 11-11h1.968z"/><path fill="#453C47" stroke="#181519" stroke-miterlimit="3.994" stroke-width="4" d="M42.541 5.234a2.985 2.985 0 0 0 2.99 2.988 2.99 2.99 0 0 0 2.99-2.988 2.985 2.985 0 0 0-1.846-2.76 2.992 2.992 0 0 0-4.134 2.76Z"/><path fill="#48354E" stroke="#19131B" stroke-miterlimit="3.994" stroke-width="4" d="M24.349 12.428 9.379 18.61 3.325 41.687l6.167 2.256 6.054-22.681 6.655-2.797z"/><path fill="#48354E" stroke="#19131B" stroke-linecap="square" stroke-miterlimit="3.994" stroke-width="4" d="m40.25 4.105 1.264 1.128h3.968l-5.232 7.132 1.264 6.099H22.202L27.31 4.105z"/></svg>
